icons/svg/heart.svg

<svg width="24" height="24" viewBox="0 0 24 24" fill="none" xmlns="http://www.w3.org/2000/svg">
<path d="M4.08714 6.47744C5.86999 4.69459 8.76055 4.69459 10.5434 6.47744L12 7.93404L13.4566 6.47744C15.2394 4.69459 18.13 4.69459 19.9129 6.47744C21.6957 8.26029 21.6957 11.1509 19.9129 12.9337L18.4563 14.3903L18.4694 14.4034L12.0131 20.8597L12 20.8466L11.9869 20.8597L5.53061 14.4034L5.54373 14.3903L4.08714 12.9337C2.30429 11.1509 2.30429 8.26029 4.08714 6.47744Z" stroke="currentColor" stroke-width="1.5" stroke-linejoin="round"/>
</svg>

<svg xmlns="http://www.w3.org/2000/svg" width="24" height="24" fill="none" viewBox="0 0 24 24"><path stroke="currentColor" stroke-linejoin="round" stroke-width="1.5" d="M4.087 6.477a4.565 4.565 0 0 1 6.456 0L12 7.934l1.457-1.457a4.565 4.565 0 0 1 6.456 6.457l-1.457 1.456.013.013-6.456 6.457-.013-.013-.013.013-6.456-6.457.013-.013-1.457-1.456a4.565 4.565 0 0 1 0-6.457Z"/></svg>
